!! 00124] ST[KA
!!!OTL: Buffalo Dance
!!!ARE: America, USA, San Juan Pueblo
!! Ethnic Group: American Indian
!!!YOR: Transkr. nach AAFS L 36)
!!!SCT: C0003
!!!YEM: Copyright 1995, estate of Helmut Schaffrath.
**kern
*ICvox
*Ivox
!! Irregular meter.
*MX
*k[]
*C:
{8c
8c
=1
4g
4g
4g
=2
4g
8a
8f
4g
8a
8f
=3
8a
8g
8f
8d
8g
8f
8d
8c
=4
8d
8c
2c
4c}
{8c
8c
=5
4g
4g
4g
=6
4g
8a
8f
4g
8a
8f
=7
8a
8g
8f
8d
8g
8f
8d
8c
=8
8d
8c
2c
4c}
{4d
8e
8d
4d
8e
8d
=9
8g
8f
8d
8c
8d
8c
2c
=10
8c
8c
2c
4c
8c
8r}
==
!!!AGN: Tanz
!! s. Schaffrath 1978b und Teilcurriculum 1979
!!!AMT: irregular
!!!AIN: vox
!!!EED: Helmut Schaffrath
!!!EEV: 1.0
*-
